!!!OTL: DOA SAU EN JONGE MOAD FREUG OPSTOAN
!!!ARE: Europa, Mitteleuropa, Deutschland, Niederrhein, Niederkruechten
!!!SCT: E0122
!!!YEM: Copyright 1995, estate of Helmut Schaffrath.
**kern
*ICvox
*Ivox
!! Mixed meters:  4/4; 3/4
*M3/4
*k[b-]
*d:
{4cn
=1
4fn
4fn
8a
8g
8fn
8g
=2
4a
8a
8g
4fn}
=3
{8a
8b-
=4
*M4/4
4ccn
4a
8fn
8e
8fn
8g
=5
*M3/4
4a
8a
8g
4fn}
=6
{4fn
=7
2fn
4g
=8
4a
4fn
4g
=9
4fn
4e
4fn
=10
2d}
{4fn
=11
2fn
4g
=12
4a
4fn
4g
=13
4fn
4e
4fn
=14
2d}
==
!!!AGN: erzaehlendes Volks - Lied, Schalk -, Schelmen - Lied, Liebe     Ballade ?
!!!ONB: ESAC (Essen Associative Code) Database: ERK1
!!!AMT: irregular
!!!AIN: vox
!!!EED: Helmut Schaffrath
!!!EEV: 1.0
*-
!!!title: @{OTL} [@{SCT}]
